X: 1
T: The Old Schoolhouse
R: reel
M: 4/4
L: 1/8
K: Dmaj
|:DFAF BFAF|DFAF GFED|DFAF BFAF|Adfe dBB2|
Bdfd e2ed|egfe dBAF|DFAF BFAF|GFEG FDD2:|
|:defg a2af|gfeg fdd2|fage f2fe|d2fd eAA2|
defg a2af|gfeg fdd2|DFAF BFAF|GFEG FDD2:|

composer: Vincent Broderick
